packages/kaspersky-hexa-ui-icons/src/iconsSVGs/48/ScanRadar02.svg

<svg xmlns="http://www.w3.org/2000/svg" width="48" height="48" fill="none" viewBox="0 0 48 48"><path fill="currentColor" fill-rule="evenodd" d="M29.3224 38.0699c.1554.5272-.1438 1.081-.67 1.24-.33.1-.67.19-1 .27a.85.85 0 0 1-.23 0c-.5523.0608-1.0492-.3377-1.11-.89-.0607-.5523.3377-1.0492.89-1.11.3-.07.59-.15.88-.24a1 1 0 0 1 1.24.73m4.9-4.5-.65.65c-.3877.39-.3877 1.02 0 1.41a1 1 0 0 0 1.42 0c.25-.24.5-.49.74-.74a1 1 0 0 0 0-1.42.9997.9997 0 0 0-1.51.1m-2.82 2.32c-.26.16-.53.31-.8.46a1.012 1.012 0 1 0 1 1.76c.3-.16.61-.34.9-.52a1 1 0 0 0 .219-1.2729 1 1 0 0 0-1.219-.4271zm6-15.94c.08.29.16.59.23.89a1 1 0 0 0 1 .77h.22a1 1 0 0 0 .75-1.2c-.08-.35-.17-.68-.27-1a1 1 0 0 0-1.91.57zm-1.05-2.53c.2605.4849.8639.6682 1.35.41a1 1 0 0 0 .41-1.35c-.16-.31-.33-.61-.52-.91-.2917-.4642-.9028-.6069-1.37-.32a1 1 0 0 0-.33 1.38c.17.26.33.52.47.79zm2.48 9c-.5354-.1252-1.0714.2054-1.2.74-.07.3-.15.59-.24.89-.1562.5243.1379 1.0768.66 1.24a1 1 0 0 0 .3 0 1 1 0 0 0 1-.71c.1-.33.19-.67.27-1a1 1 0 0 0-.78-1.13zm1.15-3a1.0003 1.0003 0 0 0-1.5259-.821 1 1 0 0 0-.4741.881v.91c0 .5523.4477 1 1 1s1-.4477 1-1v-.54c0-.18.02-.19.02-.35zm-2.29 6.7c-.4861-.2582-1.0895-.0749-1.35.41-.15.27-.3.53-.46.79-.2869.4672-.1442 1.0783.32 1.37a.92.92 0 0 0 .53.16 1 1 0 0 0 .84-.47c.19-.3.36-.6.53-.91a1 1 0 0 0-.4-1.27zm-7.74-6.93a1 1 0 0 0 1 .89h.12c.546-.0677.9347-.5637.87-1.11a7.64 7.64 0 0 0-.22-1.16 1.0005 1.0005 0 0 0-1.677-.4382 1.001 1.001 0 0 0-.253.9682c.0937.3042.1639.6151.21.93zm-2.52 7.83a1 1 0 0 0 .49-.13 7.9 7.9 0 0 0 1-.65 1 1 0 0 0-1.22-1.58c-.238.176-.485.3395-.74.49-.4798.2712-.6497.8794-.38 1.36.1533.3424.4854.5702.86.59zm3.7-3.49a7.24 7.24 0 0 0 .45-1.08.9998.9998 0 0 0-1.1412-1.36 1 1 0 0 0-.7488.72 7.4 7.4 0 0 1-.34.82c-.2469.4917-.0503 1.0904.44 1.34a1 1 0 0 0 .45.11 1 1 0 0 0 .9-.47zm16.87-3.53c.01 11.445-8.0629 21.3047-19.2849 23.5533S6.2472 43.8133 1.8471 33.248c-4.4002-10.5654-.7278-22.7678 8.7728-29.1496 9.5006-6.3819 22.1856-5.1672 30.3025 2.9015v.05a24 24 0 0 1 7.08 16.95m-2 0a21.91 21.91 0 0 0-5.76-14.83l-4.33 4.33a1 1 0 0 1-1 1.26 1 1 0 0 1-.25 0l-4.46 4.45a1 1 0 0 1-.3 1 1 1 0 0 1-.66.25 1 1 0 0 1-.24 0l-4.34 4.34a1 1 0 0 1-1.42 0 1 1 0 0 1 0-1.42l4.18-4.18c-2.1065-1.5775-4.9952-1.5982-7.124-.0509s-3.001 4.3012-2.1508 6.7918 3.2242 4.1365 5.8548 4.0591h.43c.5491-.0402 1.0275.3711 1.07.92a1 1 0 0 1-.93 1.07h-.57c-3.5011.0077-6.6005-2.262-7.6499-5.6022s.1952-6.9747 3.0717-8.9706 6.7167-1.8894 9.4782.2628l4.26-4.26a13.88 13.88 0 0 0-7.5-3.32 2 2 0 0 1-3.32 0c-5.5696.6762-10.1977 4.6121-11.7594 10.0009s.2444 11.1895 4.5894 14.7391a1.89 1.89 0 0 1 .72-.14c1.0522-.0026 1.9264.8105 2 1.86a13.89 13.89 0 0 0 6.11 1.44h.47c.5523 0 1 .4477 1 1s-.4477 1-1 1h-.47a15.9 15.9 0 0 1-7-1.63 2 2 0 0 1-2.0594.1087 2 2 0 0 1-1.0606-1.7687 1.53 1.53 0 0 1 0-.3c-4.997-4.0654-7.0685-10.7311-5.2562-16.9127S15.7814 8.8236 22.1824 8.0999a2 2 0 0 1 3.56 0 15.84 15.84 0 0 1 8.79 3.9l4.26-4.25C31.0935.7585 19.5507.1131 11.1203 6.2026S-.3247 23.453 3.893 32.959s14.5157 14.7601 24.6877 12.596c10.172-2.1642 17.4391-11.1555 17.4217-21.5551" clip-rule="evenodd"/></svg>

<svg width="48" height="48" viewBox="0 0 48 48" fill="none" xmlns="http://www.w3.org/2000/svg">
<path fill-rule="evenodd" clip-rule="evenodd" d="M29.3224 38.0699C29.4778 38.5971 29.1786 39.1509 28.6524 39.3099C28.3224 39.4099 27.9824 39.4999 27.6524 39.5799C27.5761 39.5903 27.4987 39.5903 27.4224 39.5799C26.8701 39.6407 26.3732 39.2422 26.3124 38.6899C26.2517 38.1376 26.6501 37.6407 27.2024 37.5799C27.5024 37.5099 27.7924 37.4299 28.0824 37.3399C28.3439 37.2673 28.6236 37.304 28.8574 37.4417C29.0912 37.5793 29.2591 37.8061 29.3224 38.0699ZM34.2224 33.5699L33.5724 34.2199C33.1847 34.6099 33.1847 35.2399 33.5724 35.6299C33.7602 35.8192 34.0158 35.9257 34.2824 35.9257C34.5491 35.9257 34.8047 35.8192 34.9924 35.6299C35.2424 35.3899 35.4924 35.1399 35.7324 34.8899C35.9217 34.7021 36.0282 34.4465 36.0282 34.1799C36.0282 33.9133 35.9217 33.6577 35.7324 33.4699C35.5284 33.2631 35.2445 33.1553 34.9546 33.1745C34.6647 33.1937 34.3974 33.338 34.2224 33.5699ZM31.4024 35.8899C31.1424 36.0499 30.8724 36.1999 30.6024 36.3499C30.288 36.5285 30.0928 36.8613 30.0903 37.2229C30.0878 37.5845 30.2784 37.92 30.5903 38.1029C30.9022 38.2859 31.288 38.2885 31.6024 38.1099C31.9024 37.9499 32.2124 37.7699 32.5024 37.5899C32.8764 37.276 32.969 36.7378 32.7214 36.317C32.4739 35.8961 31.9585 35.7155 31.5024 35.8899H31.4024ZM37.4024 19.9499C37.4824 20.2399 37.5624 20.5399 37.6324 20.8399C37.7412 21.3011 38.1588 21.6226 38.6324 21.6099H38.8524C39.1111 21.5504 39.3355 21.3905 39.4762 21.1654C39.6169 20.9403 39.6623 20.6685 39.6024 20.4099C39.5224 20.0599 39.4324 19.7299 39.3324 19.4099C39.1431 18.9251 38.6137 18.6666 38.115 18.8154C37.6163 18.9642 37.3151 19.4707 37.4224 19.9799L37.4024 19.9499ZM36.3524 17.4199C36.6129 17.9048 37.2163 18.0881 37.7024 17.8299C38.1874 17.5694 38.3706 16.9661 38.1124 16.4799C37.9524 16.1699 37.7824 15.8699 37.5924 15.5699C37.3007 15.1057 36.6896 14.963 36.2224 15.2499C35.995 15.3885 35.8322 15.6122 35.7703 15.8712C35.7083 16.1303 35.7523 16.4034 35.8924 16.6299C36.0624 16.8899 36.2224 17.1499 36.3624 17.4199H36.3524ZM38.8324 26.4199C38.297 26.2947 37.761 26.6253 37.6324 27.1599C37.5624 27.4599 37.4824 27.7499 37.3924 28.0499C37.2362 28.5742 37.5303 29.1267 38.0524 29.2899C38.1519 29.305 38.253 29.305 38.3524 29.2899C38.8088 29.3094 39.2204 29.0172 39.3524 28.5799C39.4524 28.2499 39.5424 27.9099 39.6224 27.5799C39.703 27.0561 39.3608 26.5604 38.8424 26.4499L38.8324 26.4199ZM39.9824 23.4199C39.9717 23.0626 39.7712 22.7382 39.4565 22.5689C39.1417 22.3995 38.7605 22.411 38.4565 22.5989C38.1524 22.7868 37.9717 23.1226 37.9824 23.4799C37.9824 23.6199 37.9824 23.7699 37.9824 23.9199C37.9824 24.0699 37.9824 24.2399 37.9824 24.3899C37.9824 24.9422 38.4301 25.3899 38.9824 25.3899C39.5347 25.3899 39.9824 24.9422 39.9824 24.3899C39.9824 24.2099 39.9824 24.0299 39.9824 23.8499C39.9824 23.6699 40.0024 23.6599 40.0024 23.4999L39.9824 23.4199ZM37.6924 30.1199C37.2063 29.8617 36.6029 30.045 36.3424 30.5299C36.1924 30.7999 36.0424 31.0599 35.8824 31.3199C35.5955 31.7871 35.7382 32.3982 36.2024 32.6899C36.3585 32.7964 36.5435 32.8523 36.7324 32.8499C37.0744 32.8472 37.3912 32.6699 37.5724 32.3799C37.7624 32.0799 37.9324 31.7799 38.1024 31.4699C38.3113 31.0064 38.1392 30.46 37.7024 30.1999L37.6924 30.1199ZM29.9524 23.1899C30.0087 23.6988 30.4404 24.083 30.9524 24.0799H31.0724C31.6184 24.0122 32.0071 23.5162 31.9424 22.9699C31.8991 22.5781 31.8255 22.1903 31.7224 21.8099C31.6278 21.4651 31.3563 21.1971 31.0104 21.1067C30.6645 21.0163 30.2967 21.1173 30.0454 21.3717C29.7942 21.6261 29.6978 21.9951 29.7924 22.3399C29.8861 22.6441 29.9563 22.955 30.0024 23.2699L29.9524 23.1899ZM27.4324 31.0199C27.6042 31.0194 27.773 30.9746 27.9224 30.8899C28.2716 30.6987 28.6059 30.4814 28.9224 30.2399C29.3199 29.8918 29.378 29.2946 29.0551 28.8764C28.7322 28.4582 28.1397 28.3634 27.7024 28.6599C27.4644 28.8359 27.2174 28.9994 26.9624 29.1499C26.4826 29.4211 26.3127 30.0293 26.5824 30.5099C26.7357 30.8523 27.0678 31.0801 27.4424 31.0999L27.4324 31.0199ZM31.1324 27.5299C31.3113 27.1826 31.4618 26.8214 31.5824 26.4499C31.7259 26.1051 31.6652 25.7091 31.4252 25.4231C31.1851 25.137 30.8057 25.0085 30.4412 25.0899C30.0768 25.1712 29.788 25.4489 29.6924 25.8099C29.5955 26.0898 29.482 26.3636 29.3524 26.6299C29.1055 27.1216 29.3021 27.7203 29.7924 27.9699C29.9318 28.0413 30.0859 28.079 30.2424 28.0799C30.6056 28.0985 30.9502 27.9185 31.1424 27.6099L31.1324 27.5299ZM48.0024 23.9999C48.0124 35.4449 39.9395 45.3046 28.7175 47.5532C17.4956 49.8017 6.24723 43.8133 1.84705 33.248C-2.55312 22.6826 1.1193 10.4802 10.6199 4.09835C20.1205 -2.28347 32.8055 -1.06885 40.9224 6.9999C40.9224 6.9999 40.9224 6.9999 40.9224 7.0499C45.4368 11.5375 47.9836 17.6346 48.0024 23.9999ZM46.0024 23.9999C46.0084 18.5095 43.9527 13.2169 40.2424 9.1699L35.9124 13.4999C35.9951 13.8062 35.9275 14.1336 35.7303 14.3822C35.533 14.6307 35.2295 14.7709 34.9124 14.7599C34.8294 14.7704 34.7454 14.7704 34.6624 14.7599L30.2024 19.2099C30.2982 19.5731 30.1823 19.9594 29.9024 20.2099C29.7201 20.3707 29.4855 20.4596 29.2424 20.4599C29.1627 20.4695 29.0821 20.4695 29.0024 20.4599L24.6624 24.7999C24.4747 24.9892 24.2191 25.0957 23.9524 25.0957C23.6858 25.0957 23.4302 24.9892 23.2424 24.7999C23.0531 24.6121 22.9466 24.3565 22.9466 24.0899C22.9466 23.8233 23.0531 23.5677 23.2424 23.3799L27.4224 19.1999C25.3159 17.6224 22.4272 17.6017 20.2984 19.149C18.1695 20.6963 17.2974 23.4502 18.1476 25.9408C18.9978 28.4315 21.3718 30.0773 24.0024 29.9999H24.4324C24.9815 29.9597 25.4599 30.371 25.5024 30.9199C25.5217 31.1853 25.4343 31.4474 25.2598 31.6482C25.0853 31.849 24.8379 31.972 24.5724 31.9899H24.0024C20.5013 31.9976 17.4019 29.7279 16.3525 26.3877C15.3032 23.0475 16.5477 19.413 19.4242 17.4171C22.3007 15.4213 26.1409 15.5277 28.9024 17.6799L33.1624 13.4199C31.054 11.583 28.4398 10.4258 25.6624 10.0999C25.2909 10.6528 24.6685 10.9844 24.0024 10.9844C23.3363 10.9844 22.714 10.6528 22.3424 10.0999C16.7728 10.7761 12.1447 14.712 10.583 20.1008C9.02121 25.4896 10.8274 31.2903 15.1724 34.8399C15.401 34.7467 15.6456 34.6991 15.8924 34.6999C16.9446 34.6973 17.8188 35.5104 17.8924 36.5599C19.7925 37.4999 21.8826 37.9924 24.0024 37.9999H24.4724C25.0247 37.9999 25.4724 38.4476 25.4724 38.9999C25.4724 39.5522 25.0247 39.9999 24.4724 39.9999H24.0024C21.5753 39.998 19.1808 39.4404 17.0024 38.3699C16.389 38.7845 15.5967 38.8263 14.943 38.4786C14.2894 38.1308 13.8813 37.4503 13.8824 36.7099C13.8726 36.6101 13.8726 36.5097 13.8824 36.4099C8.88545 32.3445 6.81386 25.6788 8.62622 19.4972C10.4386 13.3155 15.7814 8.82361 22.1824 8.0999C22.5246 7.43197 23.2119 7.01182 23.9624 7.01182C24.7129 7.01182 25.4002 7.43197 25.7424 8.0999C29.0058 8.45761 32.0774 9.82043 34.5324 11.9999L38.7924 7.7499C31.0935 0.758512 19.5507 0.113098 11.1203 6.20263C2.69 12.2922 -0.324733 23.453 3.893 32.959C8.11073 42.465 18.4087 47.7191 28.5807 45.555C38.7527 43.3908 46.0198 34.3995 46.0024 23.9999Z"  fill="currentColor"/>
</svg>
